X:1
T:Title
%%score { ( 1 3 ) | 2 }
L:1/8
Q:1/4=100
M:4/4
K:Eb
V:1 treble nm="Grand Piano"
V:3 treble 
V:2 bass 
V:1
 G3 F E2 G2 | [GB]2 [Ge]2 [Ac]4 | [GB]3 [GB] [GB]2 [Ac]2 | [GB]2 [EG]2 [DF]4 | G3 F E2 G2 | %5
w: D.~B.~Towner * * *|||||
 [GB]2 [Ge]2 c4 | d3 c BBBB | [FAc]2 [Ad]2 [Ge]4 | e2 c2 z4 | e2 B2 z4 | %10
w: |||||
 [DAB]3 [DFA] [B,DF]2 [DFA]2 | [Ac]2 [GB]2 [GB]4 | .c2 c2 z4 | e2 B2 z4 | %14
w: ||||
 [Ad]3 [CAc] [DAB][DAB][DAB][DAB] | [FAc]2 [Ad]2 [Ge]4 |] %16
w: ||
V:2
 [E,B,E]3 [E,A,E] [E,G,]2 [E,B,E]2 | [E,E]2 [E,E]2 [A,E]4 | [E,E]3 [E,E] [E,E]2 [E,E]2 | %3
 [E,E]2 [E,B,]2 [B,,B,]4 | [E,B,E]3 [E,A,E] [E,G,]2 [E,B,E]2 | [E,E]2 [E,E]2[K:treble] [A,EA]4 | %6
 [B,A]3 [B,CA] [B,DA][B,DA][B,DA][B,DA] | B,,2 [B,,B,]2 [E,B,]4 | %8
 [A,,A,][A,,A,][A,,E,][A,,E,] [A,,E,]4 | [E,G,][E,G,]E,E, E,4 | B,,3 B,, B,,2 B,,2 | %11
 [E,E]2 [E,E]2 [E,B,]4 | [A,,A,][A,,A,][A,,E,][A,,E,] [A,,E,]4 | [E,G,][E,G,]E,E, E,4 | %14
 B,3 B, B,B,B,B, | B,,2 [B,,B,]2 [E,B,]4 |] %16
V:3
 x8 | x8 | x8 | x8 | x8 | x8 | x8 | x8 | ccAA [Ac]4 | BB[B,G][B,G] [EGB]4 | x8 | x8 | %12
 e-[ce]AA [Ac]4 | BB[B,G][B,G] [EGB]4 | x8 | x8 |] %16

